X: 326
T: Bildir Güzel Gönlün Bana
C: Kıptî Hüsnü Efendi
O: Turkey
F: http://compmusic.upf.edu/node/140
N: muhayyerkurdi--sarki--nimsofyan--bildir_guzel--kipti_husnu_efendi
N: makam= muhayyerkurdi
N: form= sarki
N: usul= nimsofyan = 2/4
M: 2/4
L: 1/16
K: C _B   
Q: 1/4=60
%%MIDI tuningsystem comma53
a3g f3g  | a3b c'3/2d'/c'b  | a3/2b/ag f3/2e/df  | \
w:  Bil *  dir  gü  |  zel   |  gön *  *  *  lün  *  *  ba  | 
efef g2a2  | 
w:  na    | 
a3/2b/ag g3/2a/gf  | efed c3/2B/A2  | \
w:  Ben  *  *  *  o *  la  |  yım   | 
c3/2_e/dc cBBA  | 
w:  â *  *  *  şık  *  *  sa  | 
ABcd efga  | a3/2b/ag g3/2a/gf  | efed c3/2B/A2  | 
w:  na    |  Ben  *  *  *  o *  la  |  yım   | 
c3/2_e/dc cBBA  | A3g a2z2  | g3_7/8a gfef  | \
w:  â *  *  *  şık  *  *  sa  |  na   SAZ  |  Cil *  ve  *  et  | 
g_7/8aga c'_1/4bag  | 
w:  me   | 
g_7/8agf gfef  | g4 a4  | a3/2b/ag f3g  | \
w:  ben *  *  *  den  *  *  ya  |  na    |  Mah *  *  *  zun lu  | 
abab a3/2d'/c'b  | 
w:  ğum   | 
abag f3/2e/df  | efef g2a2  | a3/2b/ag g3/2a/gf  | 
w:  et *  *  *  me  *  *  â  |  yân    |  Gön *  *  *  lüm  *  sen  | 
efed c3/2B/A2  | c3/2_e/dc cBBA  | ABcd efga  | 
w:  de  |  dir  *  *  *  her  *  *  za  |  man    | 
a3/2b/ag g3/2a/gf  | efed c3/2B/A2  | \
w:  Gön *  *  *  lüm  *  sen  |  de  | 
c3/2_e/dc cBBA  | 
w:  dir  *  *  *  her  *  *  za  | 
A4 z4  | a3g f3g  | a3b c'3/2d'/c'b  | a3/2b/ag f3/2e/df  | \
w:  man    |  Bil *  dir  gü  |  zel   |  gön *  *  *  lün  *  *  ba  | 
efef g2a2  | 
w:  na    | 
a3/2b/ag g3/2a/gf  | efed c3/2B/A2  | \
w:  Ben  *  *  *  o *  la  |  yım   | 
c3/2_e/dc cBBA  | 
w:  â *  *  *  şık  *  *  sa  | 
ABcd efga  | a3/2b/ag g3/2a/gf  | efed c3/2B/A2  | 
w:  na    |  Ben  *  *  *  o *  la  |  yım   | 
c3/2_e/dc cBBA  | A3g a2z2  | g3_7/8a gfef  | \
w:  â *  *  *  şık  *  *  sa  |  na   SAZ  |  Cil *  ve  *  et  | 
g_7/8aga c'_1/4bag  | 
w:  me   | 
g_7/8agf gfef  | g4 a4  | a3/2b/ag f3g  | \
w:  ben *  *  *  den  *  *  ya  |  na    |  Mah *  *  *  zun lu  | 
abab a3/2d'/c'b  | 
w:  ğum   | 
abag f3/2e/df  | efef g2a2  | a3/2b/ag g3/2a/gf  | 
w:  et *  *  *  me  *  *  â  |  yân    |  Gön *  *  *  lüm  *  sen  | 
efed c3/2B/A2  | c3/2_e/dc cBBA  | ABcd efga  | 
w:  de  |  dir  *  *  *  her  *  *  za  |  man    | 
a3/2b/ag g3/2a/gf  | efed c3/2B/A2  | \
w:  Gön *  *  *  lüm  *  sen  |  de  | 
c3/2_e/dc cBBA  | 
w:  dir  *  *  *  her  *  *  za  | 
A4 z4  | |


